public/build/img/sistema/panelcerrarsesion-bl.svg

<svg width="45" height="40" viewBox="0 0 45 40" fill="none" xmlns="http://www.w3.org/2000/svg">
<path d="M25 2.49639C25 1.72296 24.6484 0.996394 24.0391 0.527644C23.4297 0.0588937 22.6406 -0.112981 21.8906 0.0745187L7.83594 3.59014C6.17187 4.00421 5 5.50421 5 7.22296V34.9964H2.5C1.11719 34.9964 0 36.1136 0 37.4964C0 38.8792 1.11719 39.9964 2.5 39.9964H7.5H22.5H25V37.4964V2.49639ZM20 19.9964C20 21.3792 19.1641 22.4964 18.125 22.4964C17.0859 22.4964 16.25 21.3792 16.25 19.9964C16.25 18.6136 17.0859 17.4964 18.125 17.4964C19.1641 17.4964 20 18.6136 20 19.9964ZM27.5 9.99639H35V37.4964V39.9964H37.5H42.5C43.8828 39.9964 45 38.8792 45 37.4964C45 36.1136 43.8828 34.9964 42.5 34.9964H40V9.99639C40 7.23858 37.7578 4.99639 35 4.99639H27.5V9.99639Z" fill="white"/>
</svg>

<svg width="45" height="40" fill="none" xmlns="http://www.w3.org/2000/svg"><path d="M25 2.496c0-.773-.352-1.5-.96-1.968a2.52 2.52 0 00-2.15-.453L7.837 3.59A3.745 3.745 0 005 7.223v27.773H2.5a2.497 2.497 0 00-2.5 2.5c0 1.383 1.117 2.5 2.5 2.5H25v-37.5zm-5 17.5c0 1.383-.836 2.5-1.875 2.5-1.04 0-1.875-1.117-1.875-2.5 0-1.382.836-2.5 1.875-2.5 1.04 0 1.875 1.118 1.875 2.5zm7.5-10H35v30h7.5c1.383 0 2.5-1.117 2.5-2.5 0-1.382-1.117-2.5-2.5-2.5H40v-25c0-2.757-2.242-5-5-5h-7.5v5z" fill="#fff"/></svg>
